X: 2189
T: WILLIE WINKIE
R: Strathspey
B: Kerr's v.2 p.22 #189
Z: 2016 John Chambers <jc:trillian.mit.edu>
N: The 2nd strain has an initial but no final repeat; fixed.
M: C
L: 1/8
K: F
f |\
c<F B/A/G/F/ c<FF>f | c<F A/B/c/A/ G<DD>f |\
c<F A/B/c/A/ c<FA<F | G<GA>G F<DD :|
|: f |\
f2 (a/g/)f/e/ f<FA<c | f>c (3(fga) g<GG>e |\
(3fef (3gfg (3agf (3gfe | (3def (3cBA | G<DD :|
